X:615
T: Tieshou kaichuang xinshijie
N: C2133
O: China,Hubei Jiayu
S: I, 368]
R: Haozi, Tiange, Wujuzi]
M: 2/4
L: 1/16
K: A
B2Bce2e2 | c2cBA2F2 | A2ecB8- | B2ceA8
ccBcBAAFE3F | A2FAB3c | BA2FE8
EEEFA2A2 | FAEFA4 | A2B4ec | BcBAF4 |
AAFAB2B2 | A2FAB4 | AAFAE2E2 | A8 |
A2FAB3c | BAF2E4

@@@ Tune index: 7170
